P3
8 8
255
0 0 0 0 0 0 0 0 0 0 0 0
0 0 0 0 0 0 0 0 0 0 0 0
0 0 0 230 70 70 230 70 70 230 70 70
230 70 70 230 70 70 230 70 70 0 0 0
0 0 0 70 210 90 230 70 70 230 70 70
230 70 70 230 70 70 230 70 70 0 0 0
0 0 0 70 210 90 70 210 90 230 70 70
230 70 70 230 70 70 230 70 70 0 0 0
0 0 0 70 210 90 70 210 90 70 210 90
230 70 70 230 70 70 230 70 70 0 0 0
0 0 0 70 210 90 70 210 90 70 210 90
70 210 90 230 70 70 230 70 70 0 0 0
0 0 0 70 210 90 70 210 90 70 210 90
70 210 90 70 210 90 230 70 70 0 0 0
0 0 0 0 0 0 0 0 0 0 0 0
0 0 0 0 0 0 0 0 0 0 0 0
